resources/icons/16px/endnote.svg

<svg width="16" height="16" viewBox="0 0 16 16" fill="none" xmlns="http://www.w3.org/2000/svg">
<path fill-rule="evenodd" clip-rule="evenodd" d="M0.59406 15.3942C0.9901 15.7981 1.5099 16 2.15347 16C2.58911 16 2.9901 15.9016 3.35644 15.7049C3.73267 15.5081 3.96535 15.375 4.29208 15.0851V15.8136H6V11.2932C6 10.2265 5.77228 9.41359 5.31683 8.85437C4.87129 8.28479 4.19307 8 3.28218 8C2.69802 8 2.15347 8.09838 1.64852 8.29515C1.14356 8.49191 0.688119 8.72492 0.282179 8.99417L0.905941 10.1903C1.23267 9.98317 1.56436 9.80712 1.90099 9.66214C2.24753 9.51715 2.59901 9.44466 2.95545 9.44466C3.20297 9.44466 3.41089 9.48608 3.57921 9.56893C3.74752 9.64142 3.88119 9.75016 3.9802 9.89514C4.08911 10.0298 4.16337 10.1903 4.20297 10.3767C4.25248 10.5528 4.28218 10.7392 4.29208 10.9359C3.5396 11.0188 2.89109 11.1379 2.34653 11.2932C1.81188 11.4485 1.36634 11.6401 1.0099 11.868C0.663367 12.0958 0.405941 12.3702 0.237624 12.6913C0.0792084 13.0019 3.53086e-08 13.3592 0 13.7631C-5.88477e-08 14.4362 0.198021 14.9799 0.59406 15.3942ZM3.50495 14.3845C3.26733 14.5295 3 14.6019 2.70297 14.6019C2.39604 14.6019 2.14357 14.5243 1.94555 14.3689C1.74753 14.2136 1.64852 13.965 1.64852 13.6233C1.64852 13.4369 1.69307 13.2608 1.78218 13.0951C1.87129 12.9295 2.0198 12.7845 2.22772 12.6602C2.43564 12.5256 2.70792 12.4065 3.04455 12.3029C3.38119 12.1994 3.79703 12.1165 4.29208 12.0544V13.7631C4.01485 14.0324 3.75248 14.2395 3.50495 14.3845Z" fill="#5F6B7C"/>
<path fill-rule="evenodd" clip-rule="evenodd" d="M9.64063 15.7549C10.0052 15.9183 10.3646 16 10.7188 16C11.1458 16 11.5573 15.9081 11.9531 15.7242C12.349 15.5404 12.6979 15.2748 13 14.9276C13.3021 14.5803 13.5417 14.1564 13.7188 13.656C13.9062 13.1453 14 12.5682 14 11.9248C14 11.3426 13.9323 10.8166 13.7969 10.3468C13.6615 9.87696 13.4635 9.47863 13.2031 9.1518C12.9427 8.81475 12.625 8.55942 12.25 8.38579C11.875 8.20194 11.4479 8.11002 10.9688 8.11002C10.5729 8.11002 10.1823 8.19684 9.79688 8.37047C9.42188 8.5441 9.11979 8.76879 8.79688 9.04456V5H7V15.8161H8.79688V15.1952C9.09732 15.4898 9.2625 15.5704 9.56928 15.72L9.64063 15.7549ZM11.625 13.9011C11.2813 14.3301 10.8542 14.5445 10.3438 14.5445C10.1146 14.5445 9.86458 14.4986 9.59375 14.4067C9.41013 14.3418 9.22392 14.161 9.03512 13.9776C8.95616 13.9009 8.87674 13.8237 8.79688 13.7545V10.5C9.38021 9.93826 9.94271 9.56545 10.4844 9.56545C11.0677 9.56545 11.4896 9.77483 11.75 10.1936C12.0104 10.6123 12.1406 11.1996 12.1406 11.9554C12.1406 12.8134 11.9688 13.4619 11.625 13.9011Z" fill="#5F6B7C"/>
<path d="M13.7071 1.25714C13.4781 1.30286 13.2424 1.32571 13 1.32571V2.35429L14.7374 2.35429V8H16L16 8.21246e-08L15.0606 0C15.0202 0.24381 14.9327 0.449524 14.798 0.617143C14.67 0.784762 14.5118 0.921904 14.3232 1.02857C14.1414 1.13524 13.936 1.21143 13.7071 1.25714Z" fill="#5F6B7C"/>
</svg>

<svg xmlns="http://www.w3.org/2000/svg" viewBox="0 0 16 16">
  <path d="M.594 15.394q.594.606 1.56.606.653 0 1.202-.295c.377-.197.61-.33.936-.62v.729H6v-4.52q0-1.601-.683-2.44Q4.648 8 3.282 8a4.5 4.5 0 0 0-1.633.295q-.757.295-1.367.7l.624 1.195q.49-.31.995-.528a2.7 2.7 0 0 1 1.054-.217q.372 0 .624.124a.9.9 0 0 1 .401.326q.164.202.223.482.075.264.09.559a12 12 0 0 0-1.946.357q-.802.233-1.337.575a2.2 2.2 0 0 0-.772.823Q0 13.157 0 13.763q0 1.01.594 1.631m2.911-1.01a1.5 1.5 0 0 1-.802.218q-.461 0-.757-.233-.297-.233-.297-.746 0-.279.133-.528.134-.248.446-.435.312-.202.817-.357a7.5 7.5 0 0 1 1.247-.249v1.71q-.416.403-.787.62M9.64 15.755q.548.245 1.079.245.64 0 1.234-.276T13 14.928q.453-.522.719-1.272.28-.766.281-1.731 0-.873-.203-1.578a3.4 3.4 0 0 0-.594-1.195 2.54 2.54 0 0 0-.953-.766 2.9 2.9 0 0 0-1.281-.276q-.594 0-1.172.26c-.375.174-.677.399-1 .675V5H7v10.816h1.797v-.62c.3.294.465.374.772.524zm1.985-1.854q-.515.644-1.281.643-.345 0-.75-.137c-.184-.065-.37-.246-.559-.43q-.118-.116-.238-.223V10.5c.583-.562 1.146-.935 1.687-.935q.876 0 1.266.629.39.628.39 1.761 0 1.287-.515 1.946M13.707 1.257a3.6 3.6 0 0 1-.707.069v1.028h1.737V8H16V0h-.94q-.06.366-.262.617a1.55 1.55 0 0 1-.475.412 2 2 0 0 1-.616.228"/>
</svg>
